Hatter-kde/actions/16/run-build-prune.svg

<svg xmlns="http://www.w3.org/2000/svg" viewBox="0 0 16 16">
  <defs id="defs3051">
    <style type="text/css" id="current-color-scheme">
      .ColorScheme-Text {
        color:#363636;
      }
      </style>
  </defs>
 <path style="fill:currentColor;fill-opacity:1;stroke:none" 
     d="M 7 2 L 7 3.1015625 A 5 5 0 0 0 5.2460938 3.8320312 L 4.4648438 3.0507812 L 3.0507812 4.4648438 L 3.8320312 5.2460938 A 5 5 0 0 0 3.1054688 7 L 2 7 L 2 9 L 3.1015625 9 A 5 5 0 0 0 3.8320312 10.753906 L 3.0507812 11.535156 L 4.4648438 12.949219 L 5.2460938 12.167969 A 5 5 0 0 0 7 12.894531 L 7 14 L 9 14 L 9 12.898438 L 9 11.869141 A 4 4 0 0 1 8 12 A 4 4 0 0 1 5.1308594 10.787109 A 4 4 0 0 1 4 8 A 4 4 0 0 1 5.2128906 5.1308594 A 4 4 0 0 1 8 4 A 4 4 0 0 1 10.869141 5.2128906 A 4 4 0 0 1 12 8 A 4 4 0 0 1 11.867188 9 L 12.894531 9 L 14 9 L 14 7 L 12.898438 7 A 5 5 0 0 0 12.167969 5.2460938 L 12.949219 4.4648438 L 11.535156 3.0507812 L 10.753906 3.8320312 A 5 5 0 0 0 9 3.1054688 L 9 2 L 7 2 z M 7 6 L 7 10 L 10 8 L 7 6 z M 10.666016 10 L 10 10.666016 L 11.333984 12 L 10 13.333984 L 10.666016 14 L 12 12.666016 L 13.333984 14 L 14 13.333984 L 12.666016 12 L 14 10.666016 L 13.333984 10 L 12 11.333984 L 10.666016 10 z "
     class="ColorScheme-Text"
     />
</svg>

<?xml version="1.0" encoding="UTF-8"?>
<svg viewBox="0 0 16 16" xmlns="http://www.w3.org/2000/svg">
 <defs id="defs3051">
  <style id="current-color-scheme" type="text/css">.ColorScheme-Text {
        color:#363636;
      }</style>
 </defs>
 <path class="ColorScheme-Text" d="m7 2v1.1016a5 5 0 0 0-1.7539 0.73047l-0.78125-0.78125-1.4141 1.4141 0.78125 0.78125a5 5 0 0 0-0.72656 1.7539h-1.1055v2h1.1016a5 5 0 0 0 0.73047 1.7539l-0.78125 0.78125 1.4141 1.4141 0.78125-0.78125a5 5 0 0 0 1.7539 0.72656v1.1055h2v-1.1016-1.0293a4 4 0 0 1-1 0.13086 4 4 0 0 1-2.8691-1.2129 4 4 0 0 1-1.1309-2.7871 4 4 0 0 1 1.2129-2.8691 4 4 0 0 1 2.7871-1.1309 4 4 0 0 1 2.8691 1.2129 4 4 0 0 1 1.1309 2.7871 4 4 0 0 1-0.13281 1h1.0273 1.1055v-2h-1.1016a5 5 0 0 0-0.73047-1.7539l0.78125-0.78125-1.4141-1.4141-0.78125 0.78125a5 5 0 0 0-1.7539-0.72656v-1.1055h-2zm0 4v4l3-2-3-2zm3.666 4-0.66602 0.66602 1.334 1.334-1.334 1.334 0.66602 0.66602 1.334-1.334 1.334 1.334 0.66602-0.66602-1.334-1.334 1.334-1.334-0.66602-0.66602-1.334 1.334-1.334-1.334z" fill="currentColor"/>
</svg>
